X:1
T:James Gibb editions
T:No puedo apartarme - Vásquez
T:#
%%score [ 1 2 3 4 ]
L:1/8
Q:1/4=180
M:none
K:C
V:1 treble nm="Soprano" snm="S"
V:2 treble nm="Alto" snm="A"
V:3 treble-8 nm="Tenor" snm="T"
V:4 bass nm="Bass" snm="B"
V:1
"^No puedo apartarme""^Juan Vásquez\n(c.1500-c.1560)" z16 | z16 | z8 F8 | F4 E4 F8 | G8 A8- | %5
w: ||No|pue- do~~a- par-|tar- me|
w: ||De|los a- mo-|res, ma-|
 A8 z8 | z16 | z4 A4 A4 A4 | G8- G4 F4 | E8 D8 | z8 z8 | z16 | F8 G4 G4 | F8 E8 | D8 z8 | z16 | %16
w: ||De los a-|mo\- * res,|ma- dre,|||No pue- do~~a-|par- tar-|me,||
w: dre,|||||||||||
 F8 G4 G4 | F8 (E4 D4 | E8) D16 || z16 | z16 | F8 G4 G4 | (F8 (E4 D4)) | E8 D8- | D8 z8 | z16 | %26
w: No pue- do~~a-|par- tar\- *|* me.|||Ma- ri- a|y Ro\- *|dri- go,|||
w: |||||Ar- man un|cas\- * *|ti- llo,|||
 z8 F8 | G4 G4 (F8 | (E4 D4)) E8 | D16 || z16 | z16 | z8 F8 | F4 E4 F8 | G8 A8- | A8 z8 | z16 | %37
w: Ma-|ri- a y|Ro\- * dri-|go,|||No|pue- do~a- par-|tar- me|||
w: Ar-|man un cas\-|* * ti-|llo,|||De|los a- mo-|res, ma-|dre,||
 z4 A4 A4 A4 | G8- G4 F4 | E8 D8 | z16 | z16 | F8 G4 G4 | F8 E8 | D8 z8 | z16 | F8 G4 G4 | %47
w: De los a-|mo\- * res,|ma- dre,|||No pue- do~~a-|par- tar-|me,||No pue- do~~a-|
w: ||||||||||
 F8 (E4 D4 | E8)"^\j" D16 |] %49
w: par- tar\- *|* me.|
w: ||
V:2
 z16 | z16 | C8 C4 _B,4 | C8 D4 (F4- | F4 E4) F8- | F8 z8 | z8 z8 | z4 F4 F4 F4 | %8
w: ||No pue- do|a- par- tar\-|* * me|||De los a-|
w: ||De los a-|mo- res, ma\-|* * dre,||||
 (E4 D2 C2) (_B,2 A,2) (D4- | D4 ^C4) D4 F4 | F4 F4 (E4 D2 C2) | (_B,2 A,2) (D4- D4 ^C4) | %12
w: mo\- * * res, * ma\-|* * dre, De|los a- mo\- * *|res, * ma\- * *|
w: ||||
 D4 F4 E2 D2 C2 _B,2 | (A,4 D4- D4 ^C4) | D4 F4 E2 D2 C2 _B,2 | (A,4 D4- D4 ^C4) | %16
w: dre, No pue- do a- par-|tar\- * * *|me, No pue- do a- par-|tar\- * * *|
w: ||||
 D4 F4 E2 D2 C2 _B,2 | A,2 (G,2 A,2 _B,2 C4 D4- | D4 ^C4) D16 || F8 (E2 D2) (C2 B,2) | %20
w: me, No pue- do a- par-|tar\- * * * * *|* * me.|Ma- ri\- * a *|
w: |||Ar- man * un *|
 A,4 D4- D4 ^C4 | D4 F4 (E2 D2) (C2 _B,2) | ((A,2 G,2) (A,2 _B,2)) (C4 D4- | D4 ^C4) D8- | D8 F8 | %25
w: y Ro\- * dri-|go, Ma- ri\- * a *|y * Ro\- * dri\- *|* * go,|* Ma-|
w: cas\- * * ti-|llo, Ar- man * un *|cas\- * * * ti\- *|* * llo,|* De|
 (E2 D2) (C2 B,2) A,4 D4- | D4 ^C4 D4 F4 | (E2 D2) (C2- _B,2) (A,2 G,2) (A,2 !courtesy!_B,2) | %28
w: ri\- * a * y Ro\-|* dri- go, Ma-|ri\- * a * y * Ro\- *|
w: los * a\- * mo- res,|* ma- dre, *||
 (C4 D4- D4 ^C4) | D16 || z16 | z16 | C8 C4 _B,4 | C8 D4 (F4- | F4 E4) F8- | F8 z8 | z16 | %37
w: dri\- * * *|go,|||No pue- do|a- par- tar\-|* * me|||
w: |||||||||
 z4 F4 F4 F4 | (E4 D2 C2) (_B,2 A,2) (D4- | D4 ^C4) D4 F4 | F4 F4 (E4 D2 C2) | %41
w: De los a-|mo\- * * res, * ma\-|* * dre, De|los a- mo\- * *|
w: ||||
 (_B,2 A,2) (D4- D4 ^C4) | D4 F4 E2 D2 C2 _B,2 | (A,4 D4- D4 ^C4) | D4 F4 E2 D2 C2 _B,2 | %45
w: res, * ma\- * *|dre, No pue- do a- par-|tar\- * * *|me, No pue- do a- par-|
w: ||||
 (A,4 D4- D4 ^C4) | D4 F4 E2 D2 C2 _B,2 | (A,2 G,2 A,2 _B,2 C4 D4- | D4 ^C4) D16 |] %49
w: tar\- * * *|me, No pue- do a- par-|tar\- * * * * *|* * me.|
w: ||||
V:3
 F8 F4 E4 | F4 F4 G8 | A8 z8 | z8 z4 _B4 | _B4 c4 (F6 G2) | (A2 _B2 c4) (B4 G2 A2) | %6
w: No pue- do~~a-|par- * tar-|me|De|los a- mo\- *|* * * res, * *|
w: De los a-|mo- res, ma-|dre,||||
 (_B2 c2 d4- d4 ^c4) | d16 | z16 | z8 z4 A4 | A4 A4 G8- | G4 F4 E8 | D8 z8 | z16 | F8 G4 G4 | %15
w: ma\- * * * *|dre,||De|los a- mo\-|* res, ma-|dre,||No pue- do~~a-|
w: |||||||||
 F8 E8 | D4 A4 c4 c4 | (F6 G2) A4 D4 | A24 || F8 G4 G4 | F8 E8 | D4 A4 c4 c4 | (F6 G2) (A4 D4) | %23
w: par- tar-|me, No pue- do|a\- * par- tar-|me.|Ma- ri- a~~y|Ro- dri-|go, Ma- ri- a|y Ro- dri\- *|
w: ||||Ar- man un|cas- ti-|llo, Ar- man un|cas\- * ti\- *|
 A16- | A8 F8 | G4 G4 F8 | E8 D4 A4 | c4 c4 (F6 G2) | (A4 D4) A8- | A16 || F8 F4 E4 | F4 F4 G8 | %32
w: go,|* Ma-|ri- a~~y Ro-|dri- go, Ma-|ri- a y Ro-|dri- * go,||No pue- do~a-|par\- * tar-|
w: llo,|* Ar-|man un cas-|ti- llo, Ar-|man un cas\- *|ti\- * llo,||De los a-|mo- res, ma-|
 A8 z8 | z8 z4 _B4 | _B4 c4 (F6 G2 | A2 _B2 c4) (!courtesy!_B4 G2 A2) | (_B2 c2 d4- d4 ^c4) | d16 | %38
w: me|De|los a- mo\- *|* * * res, * *|ma\- * * * *|dre,|
w: dre,||||||
 z16 | z8 z4 A4 | A4 A4 G8- | G4 F4 E8 | D8 z8 | z16 | F8 G4 G4 | F8 E8 | D4 A4 c4 c4 | %47
w: |De|los a- mo\-|* res, ma-|dre,||No pue- do~~a-|par- tar-|me, No pue- do|
w: |||||||||
 (F6 G2) A4 D4 | A24 |] %49
w: a\- * par- tar-|me.|
w: ||
V:4
 z16 | F,8 F,4 E,4 | F,4 F,4 (D,8 | C,8-) _B,,8 | z8 z4 A,4 | A,4 A,4 G,8- | G,4 F,4 E,8 | D,16 | %8
w: |No pue- do~~a-|par\- * tar\-|* me|De|los a- mo\-|* res, ma-|dre,|
w: |De los a-|mo- res, ma\-|* dre,|||||
 z8 z8 | z8 z4 D,4 | D,4 F,4 (C,6 D,2) | (E,4 D,4) A,,8 | D,8 z8 | z16 | D,8 C,4 C,4 | D,8 A,,8 | %16
w: |De|los a- mo\- *|res, * ma-|dre,||No pue- do~~a-|par- tar-|
w: ||||||||
 D,4 D,4 C,4 C,4 | D,8 (A,,4 B,,4 | A,,8) D,16 || D,8 C,4 C,4 | D,8 A,,8 | D,4 D,4 C,4 C,4 | %22
w: me, No pue- do~a-|par- tar- *|* me.|Ma- ri- a~~y|Ro- dri-|go, Ma- ri- a|
w: |||Ar- man un|cas- ti-|llo, Ar- man un|
 D,8 ((A,,4 _B,,4) | A,,8) D,8- | D,8 D,8 | C,4 C,4 D,8 | A,,8 D,4 D,4 | C,4 C,4 D,8 | %28
w: y Ro\- *|dri- go,|* Ma-|ri- a~~y Ro-|dri- go, Ma-|ri- a y|
w: cas- ti\- *|* llo,|* Ar-|man un cas-|ti- llo, Ar-|man un cas-|
 ((A,,4 _B,,4) A,,8) | D,16 || z16 | F,8 F,4 E,4 | F,4 F,4 (D,8- | C,8) _B,,8 | z8 z4 A,4 | %35
w: Ro\- * dri-|go,||No pue- do~~a-|par\- * tar\-|* me|De|
w: ti\- * *|llo,||De los a-|mo- res, ma\-|* dre,||
 A,4 A,4 G,8- | G,4 F,4 E,8 | D,16 | z16 | z8 z4 D,4 | D,4 F,4 (C,6 D,2) | (E,4 D,4) A,,8 | %42
w: los a- mo\-|* res, ma-|dre,||De|los a- mo\- *|res, * ma-|
w: |||||||
 D,8 z8 | z16 | D,8 C,4 C,4 | D,8 A,,8 | D,4 D,4 C,4 C,4 | D,8 (A,,4 B,,4 | A,,8) D,16 |] %49
w: dre,||No pue- do~~a-|par- tar-|me, No pue- do~~a-|par- tar\- *|* me.|
w: |||||||

